X:1
T:Through all the changing scenes of life
T:Through all the changing scenes of life - Palmyra (James Shoubridge)
C:James Shoubridge
Z:p7, Original Psalm
Z:and Hymn Tunes,
Z:London: [1837]
%%score [ 1 2 3 4 ]
L:1/8
Q:1/2=60
M:3/2
K:Bb
V:1 treble nm="Air" snm="S."
V:2 treble nm="[Alto]" snm="A."
V:3 treble-8 transpose=-12 nm="Tenor" snm="T."
V:4 bass nm="[Bass]" snm="B."
V:1
 F4 | (F4 D4) B4 | (B4 F4) d4 | (d2 c2 =B2 c2) (G2 A2) | B8 _G4 | (_G4 F4) _d4 | %6
w: Their|droop- * ing|hearts _ were|soon _ _ _ re- *|fresh’d, Who|look’d _ to|
w: Through|all _ the|chan- * ging|scenes _ _ _ of _|life, In|trou- * ble|
w: Of|his _ de-|liv- * ’rance|I _ _ _ will _|boast, Till|all _ that|
 (_d4 c2 B2) (A2 B2) | (d4 c4) F4 | (G2 =B2 c6) G2 | (A2 ^c2 d6) A2 | (B4 e4) d4 | (d4 c4) f4 | %12
w: him _ _ for _|aid; _ De-|sir’d _ _ suc-|cess _ _ in|ev- * ’ry|face _ A|
w: and _ _ in _|joy, _ The|prai- * * ses|of _ _ my|God _ shall|still _ My|
w: are _ _ dis- *|tress’d _ From|my _ _ ex-|am- * * ple|com- * fort|take, _ And|
 (f4 e2 d2) (c2 B2) | (G3 c B4) A4 | B8 |] %15
w: cheer- * * ful _|air _ _ dis-|play’d.|
w: heart _ _ and _|tongue _ _ em-|ploy.|
w: charm _ _ their _|griefs _ _ to|rest.|
V:2
 D4 | (D4 B,4) F4 | (F4 D4) F4 | (B,2 G2 F2 G2) (E2 F2) | D8 E4 | (E2 C2 F4) F4 | (F4 _G2 F2) F4 | %7
w: Their|droop- * ing|hearts _ were|soon _ _ _ re- *|fresh’d, Who|look’d _ _ to|him _ _ for|
w: Through|all _ the|chan- * ging|scenes _ _ _ of _|life, In|trou- * * ble|and _ _ in|
w: Of|his _ de-|liv- * ’rance|I _ _ _ will _|boast, Till|all _ _ that|are _ _ dis-|
 F8 D4 | (B,2 F2 E2 G2) (F2 G2) | (^F2 G2 F2 A2) (G2 A2) | (G2 F6 F4 | F8 C4 | B,2 D2 E2 F2) F4 | %13
w: aid; De-|sir’d _ _ _ suc- *|cess _ _ _ in _|ev- * ’ry|face A|cheer- * * * ful|
w: joy, The|prai- * * * ses _|of _ _ _ my _|God _ shall|still My|heart _ _ _ and|
w: tress’d From|my _ _ _ ex- *|am- * * * ple _|com- * fort|take, And|charm _ _ _ their|
 (E3 G F4) E4 | (E4 D4) |] %15
w: air _ _ dis-|play’d. _|
w: tongue _ _ em-|ploy. _|
w: griefs _ _ to|rest. _|
V:3
 B4 | (B4 F4) d4 | (d4 B4) B4 | (B2 c2 d2 c2) (e2 c2) | (B2 d2 f4) B4 | c8 B4 | %6
w: Their|droop- * ing|hearts _ were|soon _ _ _ re- *|fresh’d, _ _ Who|look’d to|
w: Through|all _ the|chan- * ging|scenes _ _ _ of _|life, _ _ In|trou- ble|
w: Of|his _ de-|liv- * ’rance|I _ _ _ will _|boast, _ _ Till|all that|
 (B4 c2 _d2) (e2 dB) | (B4 A4) B4 | (G6 c2) (A2 B2) | (A2 G2 A4) (B2 cd) | (e2 f2 A4) B4 | %11
w: him _ _ for _ _|aid; _ De-|sir’d _ suc- *|cess _ _ in _ _|ev- * * ’ry|
w: and _ _ in _ _|joy, _ The|prai- * ses _|of _ _ my _ _|God _ _ shall|
w: are _ _ dis- * *|tress’d _ From|my _ ex- *|am- * * ple _ _|com- * * fort|
 (B4 A4) A4 | B8 (A2 B2) | (B3 e d4) c4 | B8 |] %15
w: face _ A|cheer- ful _|air _ _ dis-|play’d.|
w: still _ My|heart and _|tongue _ _ em-|ploy.|
w: take, _ And|charm their _|griefs _ _ to|rest.|
V:4
 B,,4 | B,,8 B,,4 | (B,,4 D,4) B,,4 | (F,2 E,2 D,2 E,2) (C,2 F,2) | B,,8 E,4 | A,,8 B,,4 | %6
w: Their|droop- ing|hearts _ were|soon _ _ _ re- *|fresh’d, Who|look’d to|
w: Through|all the|chan- * ging|scenes _ _ _ of _|life, In|trou- ble|
w: Of|his de-|liv- * ’rance|I _ _ _ will _|boast, Till|all that|
 (F,4 E,2 _D,2) (C,2 B,,2) | F,8 B,,4 | (E,2 D,2 C,2 =E,2) (F,2 _E,2) | %9
w: him _ _ for _|aid; De-|sir’d _ _ _ suc- *|
w: and _ _ in _|joy, The|prai- * * * ses _|
w: are _ _ dis- *|tress’d From|my _ _ _ ex- *|
 (D,2 E,2 D,2 ^F,2) (G,2 =F,2) | %10
w: cess _ _ _ in _|
w: of _ _ _ my _|
w: am- * * * ple _|
"^Notes:Only the first verse of the text is given in the source: three selected subsequent verses have here been addededitorially.Voicing indications are given for the first piece in the book, as Canto - Alto - Tenore - Basso - Organo.The alto and tenor parts are printed in the source in the C clef, with middle C on the third space up on the staff(making the notes fall in the same place as if they were printed in the treble clef an octave above sounding pitch).The metronome marking and the direction ‘Portamento’ are given in the source.An organ accompaniment doubling the voice parts is given in full in the source (none of the organ bass parts in thebook are figured): this has been omitted from the present edition." (E,2 D,2 C,4) B,,4 | %11
w: ev- * * ’ry|
w: God _ _ shall|
w: com- * * fort|
 F,8 E,4 | (D,2 B,,2 G,2 F,2) (E,2 D,2) | (E,3 C, F,4) F,,4 | B,,8 |] %15
w: face A|cheer- * * * ful _|air _ _ dis-|play’d.|
w: still My|heart _ _ _ and _|tongue _ _ em-|ploy.|
w: take, And|charm _ _ _ their _|griefs _ _ to|rest.|

